packages/synapse-interface/assets/icons/eth.svg

<svg fill="none" height="48" viewBox="0 0 48 48" width="48" xmlns="http://www.w3.org/2000/svg" xmlns:xlink="http://www.w3.org/1999/xlink"><clipPath id="a"><path d="m4 4h40v40h-40z"/></clipPath><rect fill="#222" height="48" rx="24" width="48"/><g clip-path="url(#a)"><path clip-rule="evenodd" d="m23.9971 4.00049c.1475-.00723.2908.06536.371.19498l12.2977 19.86613c.0589.0951.0766.2101.0491.3186s-.0979.2011-.195.2567l-12.2978 7.0371c-.0695.0397-.1477.0577-.225.054-.0773.0037-.1555-.0143-.225-.054l-12.2978-7.0371c-.0971-.0556-.1675-.1482-.195-.2567s-.0098-.2235.0491-.3186l12.2977-19.86613c.0803-.12962.2236-.20221.371-.19498zm12.4834 22.37051c.1312.1441.1438.3602.0302.5185l-12.1582 16.9385c-.0831.1157-.2179.1782-.3554.1715-.1375.0067-.2723-.0558-.3553-.1715l-12.1583-16.9385c-.1136-.1583-.101-.3744.0301-.5185.1312-.144.3452-.1767.5134-.0783l11.9701 7 11.9701-7c.1681-.0984.3822-.0657.5133.0783z" fill="#1616b4" fill-rule="evenodd"/><path d="m23.5644 42.3049-10.2791-14.3205 10.2791 6.0111z" fill="#f0cdc2"/><path d="m24.4299 42.3049v-8.3094l10.279-6.0111z" fill="#c9b3f5"/><path d="m23.5644 30.6043-10.9759-6.2806 10.9759-4.9149z" fill="#88aaf1"/><path d="m24.4298 30.6043v-11.1955l10.9759 4.9149z" fill="#c9b3f5"/><path d="m23.5644 18.5046-10.8266 4.848 10.8266-17.48962z" fill="#f0cdc2"/><path d="m24.4299 18.5046v-12.64162l10.8265 17.48962z" fill="#b8faf6"/></g></svg>

<svg width="48" height="48" viewBox="0 0 48 48" fill="none" xmlns="http://www.w3.org/2000/svg">
<rect width="48" height="48" rx="24" fill="#222222"/>
<g clip-path="url(#clip0_1275_22740)">
<path fill-rule="evenodd" clip-rule="evenodd" d="M23.9971 4.00049C24.1446 3.99326 24.2879 4.06585 24.3681 4.19547L36.6658 24.0616C36.7247 24.1567 36.7424 24.2717 36.7149 24.3802C36.6874 24.4887 36.617 24.5813 36.5199 24.6369L24.2221 31.674C24.1526 31.7137 24.0744 31.7317 23.9971 31.728C23.9198 31.7317 23.8416 31.7137 23.7721 31.674L11.4743 24.6369C11.3772 24.5813 11.3068 24.4887 11.2793 24.3802C11.2518 24.2717 11.2695 24.1567 11.3284 24.0616L23.6261 4.19547C23.7064 4.06585 23.8497 3.99326 23.9971 4.00049ZM36.4805 26.371C36.6117 26.5151 36.6243 26.7312 36.5107 26.8895L24.3525 43.828C24.2694 43.9437 24.1346 44.0062 23.9971 43.9995C23.8596 44.0062 23.7248 43.9437 23.6418 43.828L11.4835 26.8895C11.3699 26.7312 11.3825 26.5151 11.5136 26.371C11.6448 26.227 11.8588 26.1943 12.027 26.2927L23.9971 33.2927L35.9672 26.2927C36.1353 26.1943 36.3494 26.227 36.4805 26.371Z" fill="#1616B4"/>
<path d="M23.5644 42.3049L13.2853 27.9844L23.5644 33.9955V42.3049Z" fill="#F0CDC2"/>
<path d="M24.4299 42.3049V33.9955L34.7089 27.9844L24.4299 42.3049Z" fill="#C9B3F5"/>
<path d="M23.5644 30.6043L12.5885 24.3237L23.5644 19.4088V30.6043Z" fill="#88AAF1"/>
<path d="M24.4298 30.6043V19.4088L35.4057 24.3237L24.4298 30.6043Z" fill="#C9B3F5"/>
<path d="M23.5644 18.5046L12.7378 23.3526L23.5644 5.86298V18.5046Z" fill="#F0CDC2"/>
<path d="M24.4299 18.5046V5.86298L35.2564 23.3526L24.4299 18.5046Z" fill="#B8FAF6"/>
</g>
<defs>
<clipPath id="clip0_1275_22740">
<rect width="40" height="40" fill="white" transform="translate(4 4)"/>
</clipPath>
</defs>
</svg>
